X: 8
T:Goodbye Mick
M:4/4
L:1/4
Q:120
K:D
D/2E/2|"D"FFF>D|FFF>D|FFGF|1"A"FEzC/2D/2|
EEEC|EEE>A|AGFE|"D"FD2:|
T:Note: Ending 2 is 4th repeat only (end of Chorus).
|2"A"E2zC/2D/2|EEEC|E<EEA|AGFE"D"D3||
